X:18824
T:Wind that shakes the barley, The
R:Reel
O:Ireland
M:4/4
K:D
A2AB AFED|B2BA BcdB|A2AB AFED|gfed BcdB|\
A2AB AFED|B2BA BcdB|
A2AB AFED|gfed Bcde::\
f2fd g2ge|f2fd Bcde|
f2fd g2ge|afed Bcde|\
f2fd g2ge|f2fd Bcde|fafd gbge|f2fd BcdB:|


